X:1
T:Title
%%score { ( 1 3 ) | ( 2 4 5 ) }
L:1/8
Q:1/4=80
M:2/2
K:C
V:1 treble nm="Part_1"
V:3 treble 
V:2 bass 
V:4 bass 
V:5 bass 
V:1
"^\n" E/A/B/c/ B/c/B/c/ B/c/B/c/ B/!>(!c/B/c/ | B>!>)!c B/A/G- G4 | %2
 E/A/B/c/ B/c/B/c/ B/!turn!c/B/c/ d/c/B/c/ | B>c B/A/G- G4 | C/F/G/A/ G/A/G/A/- A4 | %5
 B,/E/^F/G/ F/G/F/G/- G4 | C/F/G/A/ G/A/G/A/- A>c B/A/G | B,/E/^F/G/ F/G/F/G/- G4 | %8
 A,/D/E/F/ E/F/E/F/- F>c c>B | A8 | e/a/b/c'/ b/c'/b/c'/ b/c'/b/c'/ b/c'/b/c'/ | b>c' b/a/g- g4 | %12
 !wedge!e/a/b/c'/ b/c'/b/c'/ b/c'/b/c'/ d'/c'/b/c'/ | b>c' b/a/g- g4 | c/f/g/a/ g/a/g/a/- a4 | %15
 B/e/^f/g/ f/g/f/g/- g4 | c/f/g/a/ g/a/g/a/- a>c' b/a/g | B/e/^f/g/ f/g/f/g/- g4 | %18
 A/d/e/f/ e/f/e/f/- f>c' c'>b | a6 z E |] cB/c/- c4 c/B/c/d/ |] BA/B/- B2 G2 E2 | %22
 !wedge![ce][Bd]/e/- e/[Bd]/[ce] x3/2 [ce][Bd] x/ | [ce][Bd]/e/- e/[Bd]/e- e4 x | %24
 G,/C/D/E/ D/E/D/E/- E4 | E/F/G/A/ B/A/A/G/ A4 | E/F/G/A/ B/A/A/G/ B4 | F/G/A/B/ c/d/!p!B/c/ A4 |] %28
V:2
 A,,E,CE, CE,CE, | G,,D,B,D, B,D,B,D, | A,,E,CE, CE,CE, | G,,D,B,D, B,D,B,D, | F,,C,A,C, A,C,A,C, | %5
 E,,B,,G,B,, G,B,,G,B,, | F,,C,A,C, A,C,A,C, | E,,B,,G,B,, G,B,,G,B,, | D,,A,,F,A,, F,A,,F,A,, | %9
 A,,E,CE, CE,CE, | A,,E,CE, CE,CE, | G,,D,B,D, B,D,B,D, | A,,E,CE, CE,CE, | G,,D,B,D, B,D,B,D, | %14
 F,,C,A,C, A,C,A,C, | E,,B,,G,B,, G,B,,G,B,, | F,,C,A,C, A,C,A,C, | E,,B,,G,B,, G,B,,G,B,, | %18
 D,,A,,F,A,, F,A,,F,A,, | A,,E,CE, .CE,CE, |] A,,E,CE, CE,CE, |] G,,D,B,D, B,D,B,D, | A,,E,CE, x4 | %23
 A,,E,CE, x5 | C,,G,,E,G,, E,G,,E,G,, | C,,G,,E,G,, A,,E,!p!CE, | A,,E,CE, G,,D,B,D, | %27
 G,,D,B,.D, A,,E,CE, |] %28
V:3
 x8 | x8 | x8 | x8 | x8 | x8 | x8 | x8 | x8 | x8 | x8 | x8 | x8 | x8 | x8 | x8 | x8 | x8 | x8 | %19
 x8 |] x8 |] x8 | x3/2 c2- c2 [Bd]/[ce][Bd]/ x/ | x3/2 c2- c2 x7/2 | x8 | x8 | x8 | x8 |] %28
V:4
 x8 | x8 | x8 | x8 | x8 | x8 | x8 | x8 | x8 | x8 | x8 | x8 | x8 | x8 | x8 | x8 | x8 | x8 | x8 | %19
 x8 |] x8 |] x8 | x7/2 CE,CE, x/ | x3[I:staff -1] c2- c4 | x8 | x8 | x8 | x8 |] %28
V:5
 x8 | x8 | x8 | x8 | x8 | x8 | x8 | x8 | x8 | x8 | x8 | x8 | x8 | x8 | x8 | x8 | x8 | x8 | x8 | %19
 x8 |] x8 |] x8 | x8 | x7/2 CE,CE, x3/2 | x8 | x8 | x8 | x8 |] %28

